X:1
T:Title
%%score 1 2 3 4
L:1/8
M:2/2
K:F
V:1 treble nm="Part_1"
V:2 treble-8 nm="Part_2"
V:3 bass nm="Part_3"
V:4 bass nm="Part_4"
V:1
 F8- | F8 | E8 | F8 | A8- | A8 | B8 | A6 F2 | A4 G4- | G2 F2 F4- | F4 E4 | F8 | z4 F4- | F4 D4 | %14
 F8 | D4 C4 | F6 E2 | F4 G4 | E4 F4- | F4 D4 | E4 F4- | F4 G4 | A6 G2 | F2 E2 D4 | C4 F4 | %25
 D2 C4 B,2 | D4 C4- | C2 B,2 B,4- | B,4 A,4 | B,8- | B,8 | B,8 | z8 | D8 | E8 | E6 D2 | =B,8 | %37
 D4 C4 | =B,8 | A,8 | D4 _E4 | F8 | G4 F2 G2 | A6 G2 | B6 G2 | A2 G2 E2 F2 | G4 F2 G2 | A2 G2 F4- | %48
 F4 E4 | F8 | z4 F4- | F4 D4- | D4 F4- | F4 D4- | D4 C4 | D4 E4- | E2 D2 C2 B,2 | A,4 D4- | %58
 D2 C2 C4- | C2 B,2 B,4- | B,4 A,4 | B,8 | z8 | A,4 B,4 | C8 | D4 E4- | E4 C4 | D8 | _E4 F4- | %69
 F2 E2 D2 C2 | D4 C2 B,2 | C2 A,2 B,2 C2 | D4 C4- | C2 B,2 B,4- | B,4 A,4 | B,8- | B,8 |] %77
V:2
 F8- | F8 | A8 | F6 G2 | A8- | A8 | G4 B4 | A8 | z4 G4- | G4 A2 B2 | c8 | A8 | B8- | B8 | A8 | %15
 z4 F4- | F4 D4 | F4 G4 | A4 B4- | B4 G4 | A4 F4- | F4 G4 | A8 | B8 | F8 | z4 G4 | F4 A4 | G4 F4- | %28
 F8 | D6 C2 | B,8 | z8 | B8 | d4 B4 | c8- | c8 | G4 =B4- | B4 A4- | A2 ^GA =B4 | c8 | B8 | F4 A4 | %42
 G4 F2 G2 | A8 | B4 d4 | A2 B2 c4 | B4 G4 | A6 B2 | c8 | A6 B2 | c4 A4- | A8 | F8 | B,8 | %54
 F4 (3:2:2G4 A2 | B4 c4- | c4 z4 | A4 D4- | D4 _E2 C2 | D6 E2 | F8- | F4 D4- | D4 B,4- | B,4 F4 | %64
 G4 A4 | D4 F2 E2 | C8 | D4 B,4 | _E4 D2 E2 | F6 E2 | D4 z4 | F4 E4 | F4 G2 A2 | B2 A2 F4- | F8 | %75
 D6 E2 | F8 |] %77
V:3
 B,8 | D8 | C8 | B,4 A,4 | F,8 | C8 | B,4 D4- | D4 C4 | A,4 B,4 | C4 A,4 | G,8 | F,8- | F,8 | %13
 z4 F,4- | F,4 D,4 | F,8 | B,,8 | B,8 | C4 D4 | B,8 | C4 A,4 | B,8 | A,4 F,4- | F,4 G,4 | A,8 | %25
 F,4 E,4 | F,8 | E,4 D,4 | C,8 | B,,8 | D,8 | _E,8 | _E,6 D,2 | B,,8 | A,,8 | A,8 | =B,4 ^G,4- | %37
 G,2 ^F,4 A,2- | A,2 ^G,2 G,2 ^F,2 | A,8 | z4 G,4 | A,4 F,4 | B,8 | C8 | D4 B,4 | C8 | B,8 | %47
 F,4 A,4 | G,8 | F,8 | z8 | F,8 | D,8 | F,8 | B,,4 E,4 | F,4 E,4 | A,6 G,2 | F,8 | B,,4 _E,4 | %59
 F,4 D,4 | C,8 | B,,8- | B,,8 | z4 D,4 | E,4 F,4- | F,4 G,4 | A,8 | F,4 G,4- | G,4 A,4 | B,6 A,2 | %70
 F,4 E,4 | A,4 G,4 | F,8 | E,4 D,4 | C,8 | B,,8- | B,,8 |] %77
V:4
 B,,8- | B,,8 | A,,8 | B,,4 D,4- | D,2 C,2 D,2 B,,2 | A,,8 | E,4 B,,4 | D,4 F,4- | F,4 E,4 | %9
 C,4 F,4 | C,8 | z4 D,4 | B,,8- | B,,8 | z4 F,4- | F,4 D,4 | F,8 | B,,4 E,4 | C,4 B,,4- | B,,4 z4 | %20
 A,,4 D,4 | B,,8 | F,4 D,4 | B,,8 | F,,8 | B,,4 C,4 | F,,8 | A,,4 B,,4 | F,,8 | F,8- | F,8 | %31
 G,6 F,2 | G,4 B,4- | B,2 A,2 G,2 F,2 | A,8 | A,,8 | E,8 | z4 A,,4 | E,8 | A,,8 | B,,4 _E,4 | D,8 | %42
 _E,4 B,,4 | F,8 | B,,8 | F,4 C,4 | z4 _E,4 | F,8 | C,8 | z4 F,4- | F,4 D,4- | D,4 F,4- | %52
 F,4 B,,4- | B,,4 z4 | D,4 C,2 A,,2 | B,,2 D,2 C,4 | A,,8 | D,4 B,,4 | F,4 _E,4 | D,4 B,,4 | F,,8 | %61
 F,8 | D,6 E,2 | F,4 B,,4- | B,,2 A,,2 F,,4 | B,,6 A,,2 | F,,8 | B,,8 | C,4 F,4 | B,,8 | %70
 D,2 B,,2 C,4 | F,,4 C,4 | D,4 B,,4- | B,,2 A,,2 B,,4 | F,,8 | F,8- | F,8 |] %77

